symbols/web/sd_card/materialsymbolsrounded/sd_card_wght700gradN25fill1_48px.svg

<svg xmlns="http://www.w3.org/2000/svg" height="48" width="48"><path d="M20.4 22.05q.65 0 1.05-.425t.4-1.025v-4.9q0-.55-.425-.975Q21 14.3 20.4 14.3q-.6 0-1 .425t-.4.975v4.9q0 .6.4 1.025.4.425 1 .425Zm5.85 0q.6 0 1.025-.425.425-.425.425-1.025v-4.9q0-.55-.425-.975-.425-.425-1.025-.425-.6 0-1.025.425-.425.425-.425.975v4.9q0 .6.425 1.025.425.425 1.025.425Zm5.8 0q.65 0 1.05-.425t.4-1.025v-4.9q0-.55-.425-.975-.425-.425-1.025-.425-.6 0-1 .425t-.4.975v4.9q0 .6.4 1.025.4.425 1 .425ZM11.55 45q-1.9 0-3.225-1.325Q7 42.35 7 40.4V17.45q0-.9.325-1.775Q7.65 14.8 8.35 14.1l9.75-9.7q.7-.75 1.55-1.1.85-.35 1.8-.35h15q1.9 0 3.275 1.35T41.1 7.55V40.4q0 1.95-1.375 3.275T36.45 45Z"/></svg>

<svg xmlns="http://www.w3.org/2000/svg" height="48" width="48"><path d="M20.4 22.05Q21.05 22.05 21.45 21.625Q21.85 21.2 21.85 20.6V15.7Q21.85 15.15 21.425 14.725Q21 14.3 20.4 14.3Q19.8 14.3 19.4 14.725Q19 15.15 19 15.7V20.6Q19 21.2 19.4 21.625Q19.8 22.05 20.4 22.05ZM26.25 22.05Q26.85 22.05 27.275 21.625Q27.7 21.2 27.7 20.6V15.7Q27.7 15.15 27.275 14.725Q26.85 14.3 26.25 14.3Q25.65 14.3 25.225 14.725Q24.8 15.15 24.8 15.7V20.6Q24.8 21.2 25.225 21.625Q25.65 22.05 26.25 22.05ZM32.05 22.05Q32.7 22.05 33.1 21.625Q33.5 21.2 33.5 20.6V15.7Q33.5 15.15 33.075 14.725Q32.65 14.3 32.05 14.3Q31.45 14.3 31.05 14.725Q30.65 15.15 30.65 15.7V20.6Q30.65 21.2 31.05 21.625Q31.45 22.05 32.05 22.05ZM11.55 45Q9.65 45 8.325 43.675Q7 42.35 7 40.4V17.45Q7 16.55 7.325 15.675Q7.65 14.8 8.35 14.1L18.1 4.4Q18.8 3.65 19.65 3.3Q20.5 2.95 21.45 2.95H36.45Q38.35 2.95 39.725 4.3Q41.1 5.65 41.1 7.55V40.4Q41.1 42.35 39.725 43.675Q38.35 45 36.45 45Z"/></svg>
